X: 1
T: the Curvy Road to Corinth
C: Larry Unger (1988)
R: reel
Z: 2019 John Chambers <jc:trillian.mit.edu>
M: C|
L: 1/8
K: Em
|:\
"Em"B2eB gBeB | "D"dAeA fAed | "Em"B2eB gBeg | "D"fedB AGFA ||\
"Em"B2eB gBeB |
"D"dAeA fAef | "C"gfed BedB | "D"AGFD B,DFD ::\
"Em"E3F G2E2 | "G"GDAD BDGD |
"Em"E3F G2E2 | "D"FEDB, D2F2 ||\
"C"E3F G2E2 | "G"GDAD BDGB | "D"AdBe dBAG | "Bm"BAGF E2D2 :|
